icon/fa/mosquito-net.svg

<svg xmlns="http://www.w3.org/2000/svg" viewBox="0 0 640 512"><!--! Font Awesome Free 6.1.2 by @fontawesome - https://fontawesome.com License - https://fontawesome.com/license/free (Icons: CC BY 4.0, Fonts: SIL OFL 1.1, Code: MIT License) Copyright 2022 Fonticons, Inc.--><path d="M168.8 462.3c-7.9-3.9-11.1-13.6-7.1-21.5l29.4-60.6v-45.1c0-3.3 2.6-7.4 5.6-10.4l58.4-59.3v-23.2L139.2 343.1C87.82 395.3 0 358.9 0 286.3c0-41.1 30.62-75.7 71.41-80.8l159.89-23.9-49.5-41.3c-5.1-4.2-7.1-11.1-5-17.4l13.9-41.68-29-58.07c-4-7.9-.8-17.513 7.1-21.465 7.9-3.952 17.6-.748 21.5 7.156l32 63.999c1.9 3.8 2.2 8.19.9 12.22l-12.6 37.64 44.5 37.8v-22.6c0-14.8 11-27.3 24.7-31.8V63.67c0-4.5 3.7-8.16 7.3-8.16 5.4 0 9.1 3.66 9.1 8.16v42.43c13.7 4.5 22.9 17 22.9 31.8v22.6l46.3-37.8-12.6-37.64c-1.3-4.03-1-8.42.9-12.22l32-64c3.9-7.903 13.6-11.107 21.5-7.155 7.9 3.951 11.1 13.565 7.1 21.465l-29 58.07 13.9 41.68c2.1 6.3.1 13.2-5 17.4l-49.5 41.3 159.9 23.9c22.4 2.8 41.8 14.5 54.7 31.4-2.8 2.5-5.2 5.4-7.3 8.6-8.6-13-23.3-22.4-40-22.4s-31.4 9.4-40 22.4c-8.6-13-23.3-22.4-40-22.4-21.7 0-40 15.2-45.9 35-10.7 3.2-19.8 10.1-25.9 19.1l-41.1-35v23.2l33.3 32.4c-.3 2-.4 4.1-.4 5.3 0 17.6 8.5 32.3 21.5 40-4 3.5-7.6 6.8-10.6 10.4l-43.8-42.9v50c0 17.7-13.4 32-32 32-16.8 0-32-14.3-32-32v-50l-31.1 32v40.5c0 3.4-.6 5.8-1.7 8.1l-32 64c-3.9 7.9-13.6 11.1-21.5 7.1zM512 255.1c8.8 0 16 8.1 16 16v16h48v-16c0-7.9 7.2-16 16-16s16 8.1 16 16v16h16c8.8 0 16 8.1 16 16 0 9.7-7.2 16-16 16h-16v48h16c8.8 0 16 8.1 16 16 0 9.7-7.2 16-16 16h-16v48h16c8.8 0 16 8.1 16 16 0 9.7-7.2 16-16 16h-16v16c0 9.7-7.2 16-16 16s-16-6.3-16-16v-16h-48v16c0 9.7-7.2 16-16 16s-16-6.3-16-16v-16h-48v16c0 9.7-7.2 16-16 16s-16-6.3-16-16v-16h-16c-8.8 0-16-6.3-16-16 0-7.9 7.2-16 16-16h16v-48h-16c-8.8 0-16-6.3-16-16 0-7.9 7.2-16 16-16h16v-48h-16c-8.8 0-16-6.3-16-16 0-7.9 7.2-16 16-16h16v-16c0-7.9 7.2-16 16-16s16 8.1 16 16v16h48v-16c0-7.9 7.2-16 16-16zm64 112v-48h-48v48h48zm0 80v-48h-48v48h48zm-128-128v48h48v-48h-48zm0 80v48h48v-48h-48z"/></svg>

<svg xmlns="http://www.w3.org/2000/svg" viewBox="0 0 640 512" height="1em" width="1em">
<!--! Font Awesome Free 6.1.2 by @fontawesome - https://fontawesome.com License - https://fontawesome.com/license/free (Icons: CC BY 4.0, Fonts: SIL OFL 1.1, Code: MIT License) Copyright 2022 Fonticons, Inc.-->
  <path d="M168.8 462.3C160.9 458.4 157.7 448.7 161.7 440.8L191.1 380.2V335.1C191.1 331.8 193.7 327.7 196.7 324.7L255.1 265.4V242.2L139.2 343.1C87.82 395.3 0 358.9 0 286.3C0 245.2 30.62 210.6 71.41 205.5L231.3 181.6L181.8 140.3C176.7 136.1 174.7 129.2 176.8 122.9L190.7 81.22L161.7 23.15C157.7 15.25 160.9 5.637 168.8 1.685C176.7-2.267 186.4 .9369 190.3 8.841L222.3 72.84C224.2 76.64 224.5 81.03 223.2 85.06L210.6 122.7L255.1 160.5V137.9C255.1 123.1 266.1 110.6 279.8 106.1V63.67C279.8 59.17 283.5 55.51 287.1 55.51C292.5 55.51 296.2 59.17 296.2 63.67V106.1C309.9 110.6 319.1 123.1 319.1 137.9V160.5L365.4 122.7L352.8 85.06C351.5 81.03 351.8 76.64 353.7 72.84L385.7 8.84C389.6 .9366 399.3-2.267 407.2 1.685C415.1 5.636 418.3 15.25 414.3 23.15L385.3 81.22L399.2 122.9C401.3 129.2 399.3 136.1 394.2 140.3L344.7 181.6L504.6 205.5C527 208.3 546.4 220 559.3 236.9C556.5 239.4 554.1 242.3 552 245.5C543.4 232.5 528.7 223.1 512 223.1C495.3 223.1 480.6 232.5 472 245.5C463.4 232.5 448.7 223.1 432 223.1C410.3 223.1 392 238.3 386.1 258.1C375.4 261.3 366.3 268.2 360.2 277.2L319.1 242.2V265.4L352.4 297.8C352.1 299.8 352 301.9 352 303.1C352 320.7 360.5 335.4 373.5 343.1C369.5 346.6 365.9 349.9 362.9 353.5L319.1 310.6V360.6C319.1 378.3 305.7 392.6 287.1 392.6C270.3 392.6 255.1 378.3 255.1 360.6V310.6L224 342.6V383.1C224 386.5 223.4 388.9 222.3 391.2L190.3 455.2C186.4 463.1 176.7 466.3 168.8 462.3V462.3zM512 255.1C520.8 255.1 528 263.2 528 271.1V287.1H576V271.1C576 263.2 583.2 255.1 592 255.1C600.8 255.1 608 263.2 608 271.1V287.1H624C632.8 287.1 640 295.2 640 303.1C640 312.8 632.8 319.1 624 319.1H608V367.1H624C632.8 367.1 640 375.2 640 383.1C640 392.8 632.8 399.1 624 399.1H608V447.1H624C632.8 447.1 640 455.2 640 463.1C640 472.8 632.8 479.1 624 479.1H608V495.1C608 504.8 600.8 511.1 592 511.1C583.2 511.1 576 504.8 576 495.1V479.1H528V495.1C528 504.8 520.8 511.1 512 511.1C503.2 511.1 496 504.8 496 495.1V479.1H448V495.1C448 504.8 440.8 511.1 432 511.1C423.2 511.1 416 504.8 416 495.1V479.1H400C391.2 479.1 384 472.8 384 463.1C384 455.2 391.2 447.1 400 447.1H416V399.1H400C391.2 399.1 384 392.8 384 383.1C384 375.2 391.2 367.1 400 367.1H416V319.1H400C391.2 319.1 384 312.8 384 303.1C384 295.2 391.2 287.1 400 287.1H416V271.1C416 263.2 423.2 255.1 432 255.1C440.8 255.1 448 263.2 448 271.1V287.1H496V271.1C496 263.2 503.2 255.1 512 255.1V255.1zM576 367.1V319.1H528V367.1H576zM576 447.1V399.1H528V447.1H576zM448 319.1V367.1H496V319.1H448zM448 399.1V447.1H496V399.1H448z"/>
</svg>
